img/love-live-style.svg

<svg fill="none" height="106" viewBox="0 0 785 106" width="785" xmlns="http://www.w3.org/2000/svg"><g fill="#000"><path d="m688.288 58.7918c7.265-1.8048 13.56-3.3583 19.849-4.9369.945-.2363 1.86-.5983 2.805-.8497 6.264-1.644 10.372-6.3044 9.99-12.7999-.292-4.9168.472-8.9438 4.278-12.2016.448-.3821.684-1.0055.865-1.282-1.373-3.4891-2.886-6.6865-3.891-10.0348-1.418-4.7309.734-7.26974 5.56-8.22998 6.5-1.29206 12.885-3.16227 19.336-4.71576 10.829-2.60925 21.773-2.44837 32.723-1.0256 2.564.33182 4.555 1.75459 5.083 4.61521.533 2.87573-.83 4.53983-3.444 5.13803-6.51 1.4932-13.056 2.8204-19.577 4.2432-5.897 1.287-11.789 2.5841-17.661 3.9667-.9.2111-1.689.8848-2.534 1.3423-.05.4324-.106.8597-.156 1.2921 1.493.3418 3.052 1.1462 4.47.9401 4.685-.6737 9.3-1.7998 13.971-2.569 2.845-.4676 6.505 2.2975 7.571 5.4246.93 2.7249-.392 6.8122-3.263 8.245-3.041 1.5233-6.374 2.5037-9.627 3.5796-5.334 1.7596-10.729 3.3482-16.058 5.1229-3.182 1.0558-3.117 4.3639-4.188 6.8122-.136.3067 1.559 2.0663 2.157 1.9406 7.421-1.5384 15.168-2.3277 20.995-8.0489.261-.2564.558-.4877.88-.6536.97-.5178 1.965-.9954 2.92-1.4781 6.345 6.028 4.309 13.353-1.96 17.395-7.421 4.7812-15.485 8.6171-24.519 9.4416-2.388.2162-5.289.5782-7.179-.4977-5.797-3.288-11.307-1.0306-16.842.0955-7.416 1.5032-14.686 3.7907-22.131 5.0979-10.684 1.8752-14.746-3.4137-15.002-13.0111-.211-7.8831 2.639-15.2282 5.706-22.347 3.263-7.5815 6.405-15.1126 6.747-23.5436.166-4.1477 4.223-6.14358 8.009-4.2382 4.509 2.2724 6.711 7.4909 5.067 12.2972-2.855 8.3606-5.872 16.666-8.627 25.0619-.99 2.9913-1.402 6.1686-2.323 10.4118z"/><path d="m640.659 45.4288c-2.072 1.3474-3.364 2.5188-4.882 3.1221-4.575 1.8048-11.523-1.5384-12.498-6.6916-1.016-5.3944-.835-11.0201-1.121-16.5503-.091-1.7647-.015-3.5343-.015-5.0325-3.861.9451-7.486 1.659-10.985 2.7802-1.157.372-2.59 1.6389-2.851 2.745-2.574 10.8291-6.013 21.5275-5.158 32.9248.307 4.0672-1.906 7.7322-4.399 8.2249-2.886.5681-8.532-2.8003-9.2-6.2039-.739-3.7404-1.091-7.7121-.699-11.4877.734-7.0888 2.131-14.1121 3.222-21.1656.071-.4424-.16-.9301-.377-2.0563-3.303.7391-6.651 1.0206-9.607 2.2473-7.204 2.9813-12.478-1.7445-13.076-8.8986-.498-5.9475 1.005-7.4306 8.481-7.7624 8.401-.367 16.807-.5681 25.212-.8195 6.285-.191 12.554-.3066 18.527 2.2674.583.2514 1.568-.1055 2.237-.4424 3.735-1.8752 6.36-1.2367 8.964 2.0864 2.433 3.102 3.65 6.5659 3.69 10.4973.01.9351.302 1.8652.548 3.2779 5.148-4.0722 9.12-8.431 11.779-14.0065 1.277-2.6846 2.398-5.64579 6.325-5.73125 4.59-.09552 9.989 6.01285 9.235 11.04535-.337 2.2523-1.282 4.4191-2.011 6.606-3.785 11.4274-7.812 22.7845-11.226 34.3225-.825 2.7953-.025 6.2843.719 9.2807.95 3.846.508 7.5814-2.081 8.5366-3.364 1.2418-5.868-.3117-7.969-3.0064-5.993-7.6971-4.796-16.0728-2.509-24.5793.448-1.6289 1.006-3.2276 1.725-5.5302z"/><path d="m154.268 75.6538c2.081-.2765 3.921-.2816 5.62-.7793 9.754-2.8807 19.507-5.7614 29.175-8.9237 2.719-.8899 4.952-1.3122 6.656 1.3121 1.991 3.0668 1.533 6.5207-1.282 8.7378-2.112 1.659-4.439 3.0818-6.807 4.3688-9.97 5.4096-20.412 9.6779-31.517 12.0609-3.359.7189-6.958.8094-10.397.543-3.177-.2464-7.737-5.9978-7.526-9.8388.286-5.1632 1.558-10.261 2.116-15.4242.277-2.5841.352-5.3542-.271-7.8428-1.207-4.8063-1.875-8.9841 3.675-11.7442 1.005-.5027 1.322-2.9762 1.418-4.575.1-1.659-.518-3.3482-.709-5.0375-.684-6.048 2.016-9.522 8.064-10.5677 9.296-1.6088 18.551-3.5092 27.887-4.8364 9.809-1.3926 19.602-.6133 29.32 1.3624 2.811.5732 4.55 2.7149 4.203 4.756-.296 1.7596-2.715 4.1426-4.535 4.4946-7.229 1.3976-14.579 2.2824-21.914 3.0164-6.998.6989-13.906 1.5988-20.276 4.7912-1.247.6234-2.328 1.5887-3.484 2.3931.065.372.136.739.201 1.111 1.413.0905 2.846.3771 4.228.2313 6.943-.734 13.866-1.644 20.809-2.3629 3.67-.3771 5.404 2.383 6.39 5.128 1.051 2.9159.05 5.867-3.208 6.7921-9.059 2.5791-18.169 5.0174-27.334 7.2043-6.883 1.639-10.417 5.6811-10.502 13.6295z"/><path d="m426.68 36.4998c4.007-.2313 8.014-.5631 12.021-.6586 3.63-.0905 6.601 1.5334 8.592 4.5096 1.453 2.1769 1.488 4.6655-.091 6.9077-1.96 2.7953-4.816 3.3232-8.079 3.5293-6.988.4374-14.006 1.2569-19.642 6.0631-.86.734-.925 2.3881-1.362 3.6148 1.292.2363 2.719.9602 3.846.6334 6.224-1.7998 12.377-3.8208 18.536-5.8419 1.272-.4173 2.639-.9301 3.604-1.7948 2.117-1.8953 4.098-2.6293 6.496-.548 2.403 2.0864 4.811 4.6906 3.212 7.7574-1.603 3.0718-4.072 6.3396-7.023 7.9484-9.436 5.1481-19.823 8.0138-30.396 9.5522-3.62.5278-7.345-1.3021-10.568-4.3287-5.691-5.3442-4.348-12.639-6.596-18.8831-1.634-4.5448-1.161-8.4109 3.334-11.4777 2.594-1.7696 2.709-4.8314 2.141-8.0037-.523-2.9159-1.005-6.224-.145-8.9237 2.317-7.2546 4.394-7.3602 11.678-6.7418 2.494.2111 5.259.4826 7.511-.3369 10.166-3.7102 20.216-3.5544 30.195.2966 1.277.4927 2.911 2.745 2.68 3.8109-.347 1.5685-1.991 3.6046-3.484 4.032-5.525 1.5786-11.272 2.3729-16.827 3.8661-3.449.9301-6.702 2.5891-10.04 3.9214.136.362.272.729.407 1.096z"/><path d="m329.142 65.4533c-.377-2.5892-1.327-5.857-1.227-9.0897.181-5.9776 1.146-11.9301 1.443-17.9128.146-2.9913-.643-6.0178-.704-9.0393-.085-4.1527 4.047-7.3703 8.024-6.4704 6.586 1.4932 10.422 8.2601 8.295 14.7807-3.685 11.3118-4.539 22.6336-.703 34.1264 1.357 4.0622-.091 5.5553-4.299 4.8414-1.538-.2614-3.037-.7692-4.811-1.2367-2.212 5.2336-7.22 6.3145-12.207 7.7775-7.616 2.2372-15.052 5.0777-22.654 7.3702-8.074 2.4333-14.137 1.1714-16.701-8.5316-.342-1.3021-.397-2.8003-.151-4.1225 2.997-16.299 6.159-32.5628 9.055-48.8769.457-2.569.125-5.3794-.352-7.9886-.92-5.0426 2.006-8.4311 7.139-7.873 6.093.6636 9.924 7.1641 8.491 13.2272-2.066 8.7277-3.589 17.586-5.258 26.4042-1.076 5.686-2.057 11.3872-2.987 17.0984-.628 3.8711.166 4.3387 3.796 3.2075 8.501-2.6595 17.058-5.1029 25.811-7.692z"/><path d="m15.0868 90.3993c5.8821-1.8501 10.8492-3.4035 15.8113-4.9771 6.038-1.9155 12.0056-4.0924 18.129-5.6911 5.1582-1.3424 9.7131 2.1668 10.4571 7.4356.3922 2.7651-2.378 6.7971-5.5201 7.6417-6.9379 1.8652-13.9361 3.5042-20.864 5.4096-3.4287.945-6.7066 2.448-10.1404 3.368-3.479.93-7.0535 1.941-10.6179 2.057-6.99825.236-13.187052-6.4909-12.2469181-13.8611.8647221-6.782 2.9209481-13.4183 4.4844881-20.1098 1.98082-8.4813 4.10743-16.9325 5.90723-25.449.5028-2.378-.3066-5.0325.1659-7.4205.3922-1.9758 1.3725-4.7661 2.8456-5.3744 2.3428-.9703 5.8369-1.4278 7.9182-.3368 6.1938 3.2477 7.5362 9.5019 4.3337 15.2332-2.559 4.58-3.0466 10.3113-4.4744 15.5298-1.8803 6.8725-3.8159 13.7249-5.6308 20.6125-.362 1.3876-.2866 2.8908-.558 5.9324z"/><path d="m551.324 73.7233c-10.331-.3971-16.565-1.5534-19.305-9.6125-.84-2.4684-.272-3.7203 1.005-5.143 1.725-1.9205 3.877-1.2569 5.681-.181 4.344 2.5992 15.746 1.0608 19.215-2.745 1.292-1.4178-.005-4.2382-2.684-5.862-5.867-3.5494-11.84-6.9379-17.566-10.7035-5.525-3.6298-9.045-8.9639-9.98-15.4644-.874-6.0983 2.393-10.6482 7.2-14.07188 6.611-4.71073 14.192-7.23954 21.995-8.974009 5.751-1.282001 12.242 5.138059 11.457 10.884489-.427 3.1321-4.288 5.8469-8.099 5.0626-6.138-1.2719-11.055 1.4278-15.821 4.4191-4.007 2.5138-3.736 5.9475.724 8.964 5.469 3.7052 11.14 7.1138 16.756 10.5928 5.354 3.3182 8.678 8.2903 11.121 13.8708 1.815 4.1426-1.458 12.6591-5.877 14.288-6.124 2.2523-12.534 3.7304-15.822 4.6755z"/><path d="m99.1909 66.5341c-.5178 5.4548-4.1376 11.8195-10.8241 16.3895-4.7962 3.2779-9.7432 6.3547-15.9069 5.8318-7.4858-.6385-12.83-4.2281-16.9475-10.7788-4.4795-7.134-4.0019-14.9065-2.569-21.9198 2.5237-12.3172 18.129-23.0006 31.9494-15.5298 8.6774 4.6957 14.2931 13.9563 14.2981 26.0071zm-20.9092-16.6962c-4.6504-.1056-8.8684 3.3282-9.6074 7.9333-.5028 3.1522-1.0407 6.3145-1.2418 9.4918-.3369 5.3392 2.6796 8.1445 6.9328 6.0531 3.6299-1.7847 7.2547-4.2381 9.8539-7.2798 2.8505-3.3332 3.5695-7.6719 1.3172-12.091-1.5837-3.107-4.198-3.8762-7.2547-4.1074z"/><path d="m116.436 62.0849c1.679-4.9671 3.67-9.8588 4.962-14.9265 1.574-6.1687 2.625-12.4731 3.766-18.7474.84-4.6001 2.574-6.7971 5.746-6.8021 3.821-.005 8.527 3.6851 8.658 7.3753.1 2.7952.135 6.1938-1.287 8.3305-3.882 5.8268-3.66 12.6641-5.737 18.8831-2.217 6.6312-4.394 13.2775-6.792 19.8434-1.453 3.9867-3.132 7.9132-4.992 11.729-1.674 3.4287-6.264 3.6449-9.366 1.2921-6.119-4.6353-6.792-11.4626-8.22-18.1441-1.579-7.3853-3.5043-14.6953-5.2991-22.0303-.8295-3.3986-2.6595-6.8575-.2161-10.1907.7692-1.0507 2.4582-2.0663 3.6902-2.0311 5.626.1659 9.09 3.5494 10.563 9.9996 1.161 5.0828 2.166 10.2007 3.242 15.2986.433.0452.855.0855 1.282.1206z"/><path d="m376.636 47.7314c3.358-9.6377 6.39-19.3557 6.953-29.6721.231-4.1677 2.835-7.9082 5.44-8.21484 4.846-.5681 9.094 2.83544 10.321 6.85244.508 1.659-.282 3.8208-.799 5.6609-2.177 7.7373-4.575 15.4142-6.702 23.1665-1.916 6.9932-3.318 14.1422-5.5 21.0449-.749 2.378-2.826 5.5353-4.872 6.0531-3.941.9904-7.998-.4374-10.512-4.218-5.606-8.4311-8.476-17.9983-11.066-27.6309-1.447-5.3945-2.83-10.8744-3.423-16.3996-.221-2.0713 1.438-4.8264 3.051-6.4703 1.599-1.6289 6.702.372 8.934 2.6344 3.494 3.5544 3.067 8.3305 4.108 12.6189 1.176 4.8414 1.955 9.7784 2.905 14.6701.393-.0252.775-.0603 1.162-.0955z"/><path d="m230.293 44.2373c6.289.176 10.834 5.4498 10.919 10.5325.076 4.4393-4.559 10.0047-8.149 10.1002-4.359.1206-10.422-7.7071-10.281-13.2775.105-4.2432 3.273-7.3451 7.511-7.3552z"/><path d="m465.225 43.458c1.202-1.9657 1.966-4.7912 3.715-5.681 2.358-1.2016 5.561-2.3328 8.074.6737 1.906 2.2824 4.495 4.1024 5.963 6.606 1.946 3.3282.095 7.496-3.685 9.8941-2.217 1.4077-7.084.6837-9.17-1.3072-2.785-2.6595-4.646-5.686-4.002-9.7884-.297-.1257-.593-.2614-.895-.3972z"/></g></svg>

<svg width="785" height="106" viewBox="0 0 785 106" fill="none" xmlns="http://www.w3.org/2000/svg">
<path d="M688.288 58.7918C695.553 56.987 701.848 55.4335 708.137 53.8549C709.082 53.6186 709.997 53.2566 710.942 53.0052C717.206 51.3612 721.314 46.7008 720.932 40.2053C720.64 35.2885 721.404 31.2615 725.21 28.0037C725.658 27.6216 725.894 26.9982 726.075 26.7217C724.702 23.2326 723.189 20.0352 722.184 16.6869C720.766 11.956 722.918 9.41716 727.744 8.45692C734.244 7.16486 740.629 5.29465 747.08 3.74116C757.909 1.13191 768.853 1.29279 779.803 2.71556C782.367 3.04738 784.358 4.47015 784.886 7.33077C785.419 10.2065 784.056 11.8706 781.442 12.4688C774.932 13.962 768.386 15.2892 761.865 16.712C755.968 17.999 750.076 19.2961 744.204 20.6787C743.304 20.8898 742.515 21.5635 741.67 22.021C741.62 22.4534 741.564 22.8807 741.514 23.3131C743.007 23.6549 744.566 24.4593 745.984 24.2532C750.669 23.5795 755.284 22.4534 759.955 21.6842C762.8 21.2166 766.46 23.9817 767.526 27.1088C768.456 29.8337 767.134 33.921 764.263 35.3538C761.222 36.8771 757.889 37.8575 754.636 38.9334C749.302 40.693 743.907 42.2816 738.578 44.0563C735.396 45.1121 735.461 48.4202 734.39 50.8685C734.254 51.1752 735.949 52.9348 736.547 52.8091C743.968 51.2707 751.715 50.4814 757.542 44.7602C757.803 44.5038 758.1 44.2725 758.422 44.1066C759.392 43.5888 760.387 43.1112 761.342 42.6285C767.687 48.6565 765.651 55.9815 759.382 60.0235C751.961 64.8047 743.897 68.6406 734.863 69.4651C732.475 69.6813 729.574 70.0433 727.684 68.9674C721.887 65.6794 716.377 67.9368 710.842 69.0629C703.426 70.5661 696.156 72.8536 688.711 74.1608C678.027 76.036 673.965 70.7471 673.709 61.1497C673.498 53.2666 676.348 45.9215 679.415 38.8027C682.678 31.2212 685.82 23.6901 686.162 15.2591C686.328 11.1114 690.385 9.11552 694.171 11.0209C698.68 13.2933 700.882 18.5118 699.238 23.3181C696.383 31.6787 693.366 39.9841 690.611 48.38C689.621 51.3713 689.209 54.5486 688.288 58.7918Z" fill="black"/>
<path d="M640.659 45.4288C638.587 46.7762 637.295 47.9476 635.777 48.5509C631.202 50.3557 624.254 47.0125 623.279 41.8593C622.263 36.4649 622.444 30.8392 622.158 25.309C622.067 23.5443 622.143 21.7747 622.143 20.2765C618.282 21.2216 614.657 21.9355 611.158 23.0567C610.001 23.4287 608.568 24.6956 608.307 25.8017C605.733 36.6308 602.294 47.3292 603.149 58.7265C603.456 62.7937 601.243 66.4587 598.75 66.9514C595.864 67.5195 590.218 64.1511 589.55 60.7475C588.811 57.0071 588.459 53.0354 588.851 49.2598C589.585 42.171 590.982 35.1477 592.073 28.0942C592.144 27.6518 591.913 27.1641 591.696 26.0379C588.393 26.777 585.045 27.0585 582.089 28.2852C574.885 31.2665 569.611 26.5407 569.013 19.3866C568.515 13.4391 570.018 11.956 577.494 11.6242C585.895 11.2572 594.301 11.0561 602.706 10.8047C608.991 10.6137 615.26 10.4981 621.233 13.0721C621.816 13.3235 622.801 12.9666 623.47 12.6297C627.205 10.7545 629.83 11.393 632.434 14.7161C634.867 17.8181 636.084 21.282 636.124 25.2134C636.134 26.1485 636.426 27.0786 636.672 28.4913C641.82 24.4191 645.792 20.0603 648.451 14.4848C649.728 11.8002 650.849 8.83901 654.776 8.75355C659.366 8.65803 664.765 14.7664 664.011 19.7989C663.674 22.0512 662.729 24.218 662 26.4049C658.215 37.8323 654.188 49.1894 650.774 60.7274C649.949 63.5227 650.749 67.0117 651.493 70.0081C652.443 73.8541 652.001 77.5895 649.412 78.5447C646.048 79.7865 643.544 78.233 641.443 75.5383C635.45 67.8412 636.647 59.4655 638.934 50.959C639.382 49.3301 639.94 47.7314 640.659 45.4288Z" fill="black"/>
<path d="M154.268 75.6538C156.349 75.3773 158.189 75.3722 159.888 74.8745C169.642 71.9938 179.395 69.1131 189.063 65.9508C191.782 65.0609 194.015 64.6386 195.719 67.2629C197.71 70.3297 197.252 73.7836 194.437 76.0007C192.325 77.6597 189.998 79.0825 187.63 80.3695C177.66 85.7791 167.218 90.0474 156.113 92.4304C152.754 93.1493 149.155 93.2398 145.716 92.9734C142.539 92.727 137.979 86.9756 138.19 83.1346C138.476 77.9714 139.748 72.8736 140.306 67.7104C140.583 65.1263 140.658 62.3562 140.035 59.8676C138.828 55.0613 138.16 50.8835 143.71 48.1234C144.715 47.6207 145.032 45.1472 145.128 43.5484C145.228 41.8894 144.61 40.2002 144.419 38.5109C143.735 32.4629 146.435 28.9889 152.483 27.9432C161.779 26.3344 171.034 24.434 180.37 23.1068C190.179 21.7142 199.972 22.4935 209.69 24.4692C212.501 25.0424 214.24 27.1841 213.893 29.2252C213.597 30.9848 211.178 33.3678 209.358 33.7198C202.129 35.1174 194.779 36.0022 187.444 36.7362C180.446 37.4351 173.538 38.335 167.168 41.5274C165.921 42.1508 164.84 43.1161 163.684 43.9205C163.749 44.2925 163.82 44.6595 163.885 45.0315C165.298 45.122 166.731 45.4086 168.113 45.2628C175.056 44.5288 181.979 43.6188 188.922 42.8999C192.592 42.5228 194.326 45.2829 195.312 48.0279C196.363 50.9438 195.362 53.8949 192.104 54.82C183.045 57.3991 173.935 59.8374 164.77 62.0243C157.887 63.6633 154.353 67.7054 154.268 75.6538Z" fill="black"/>
<path d="M426.68 36.4998C430.687 36.2685 434.694 35.9367 438.701 35.8412C442.331 35.7507 445.302 37.3746 447.293 40.3508C448.746 42.5277 448.781 45.0163 447.202 47.2585C445.242 50.0538 442.386 50.5817 439.123 50.7878C432.135 51.2252 425.117 52.0447 419.481 56.8509C418.621 57.5849 418.556 59.239 418.119 60.4657C419.411 60.702 420.838 61.4259 421.965 61.0991C428.189 59.2993 434.342 57.2783 440.501 55.2572C441.773 54.8399 443.14 54.3271 444.105 53.4624C446.222 51.5671 448.203 50.8331 450.601 52.9144C453.004 55.0008 455.412 57.605 453.813 60.6718C452.21 63.7436 449.741 67.0114 446.79 68.6202C437.354 73.7683 426.967 76.634 416.394 78.1724C412.774 78.7002 409.049 76.8703 405.826 73.8437C400.135 68.4995 401.478 61.2047 399.23 54.9606C397.596 50.4158 398.069 46.5497 402.564 43.4829C405.158 41.7133 405.273 38.6515 404.705 35.4792C404.182 32.5633 403.7 29.2552 404.56 26.5555C406.877 19.3009 408.954 19.1953 416.238 19.8137C418.732 20.0248 421.497 20.2963 423.749 19.4768C433.915 15.7666 443.965 15.9224 453.944 19.7734C455.221 20.2661 456.855 22.5184 456.624 23.5843C456.277 25.1528 454.633 27.1889 453.14 27.6163C447.615 29.1949 441.868 29.9892 436.313 31.4824C432.864 32.4125 429.611 34.0715 426.273 35.4038C426.409 35.7658 426.545 36.1328 426.68 36.4998Z" fill="black"/>
<path d="M329.142 65.4533C328.765 62.8641 327.815 59.5963 327.915 56.3636C328.096 50.386 329.061 44.4335 329.358 38.4508C329.504 35.4595 328.715 32.433 328.654 29.4115C328.569 25.2588 332.701 22.0412 336.678 22.9411C343.264 24.4343 347.1 31.2012 344.973 37.7218C341.288 49.0336 340.434 60.3554 344.27 71.8482C345.627 75.9104 344.179 77.4035 339.971 76.6896C338.433 76.4282 336.934 75.9204 335.16 75.4529C332.948 80.6865 327.94 81.7674 322.953 83.2304C315.337 85.4676 307.901 88.3081 300.299 90.6006C292.225 93.0339 286.162 91.772 283.598 82.069C283.256 80.7669 283.201 79.2687 283.447 77.9465C286.444 61.6475 289.606 45.3837 292.502 29.0696C292.959 26.5006 292.627 23.6902 292.15 21.081C291.23 16.0384 294.156 12.6499 299.289 13.208C305.382 13.8716 309.213 20.3721 307.78 26.4352C305.714 35.1629 304.191 44.0212 302.522 52.8394C301.446 58.5254 300.465 64.2266 299.535 69.9378C298.907 73.8089 299.701 74.2765 303.331 73.1453C311.832 70.4858 320.389 68.0424 329.142 65.4533Z" fill="black"/>
<path d="M15.0868 90.3993C20.9689 88.5492 25.936 86.9958 30.8981 85.4222C36.9361 83.5067 42.9037 81.3298 49.0271 79.7311C54.1853 78.3887 58.7402 81.8979 59.4842 87.1667C59.8764 89.9318 57.1062 93.9638 53.9641 94.8084C47.0262 96.6736 40.028 98.3126 33.1001 100.218C29.6714 101.163 26.3935 102.666 22.9597 103.586C19.4807 104.516 15.9062 105.527 12.3418 105.643C5.34355 105.879 -0.845252 99.1521 0.0948819 91.7819C0.959604 84.9999 3.01583 78.3636 4.57937 71.6721C6.56019 63.1908 8.6868 54.7396 10.4866 46.2231C10.9894 43.8451 10.18 41.1906 10.6525 38.8026C11.0447 36.8268 12.025 34.0365 13.4981 33.4282C15.8409 32.4579 19.335 32.0004 21.4163 33.0914C27.6101 36.3391 28.9525 42.5933 25.75 48.3246C23.191 52.9046 22.7034 58.6359 21.2756 63.8544C19.3953 70.7269 17.4597 77.5793 15.6448 84.4669C15.2828 85.8545 15.3582 87.3577 15.0868 90.3993Z" fill="black"/>
<path d="M551.324 73.7233C540.993 73.3262 534.759 72.1699 532.019 64.1108C531.179 61.6424 531.747 60.3905 533.024 58.9678C534.749 57.0473 536.901 57.7109 538.705 58.7868C543.049 61.386 554.451 59.8476 557.92 56.0418C559.212 54.624 557.915 51.8036 555.236 50.1798C549.369 46.6304 543.396 43.2419 537.67 39.4763C532.145 35.8465 528.625 30.5124 527.69 24.0119C526.816 17.9136 530.083 13.3637 534.89 9.94002C541.501 5.22929 549.082 2.70048 556.885 0.966011C562.636 -0.31599 569.127 6.10407 568.342 11.8505C567.915 14.9826 564.054 17.6974 560.243 16.9131C554.105 15.6412 549.188 18.3409 544.422 21.3322C540.415 23.846 540.686 27.2797 545.146 30.2962C550.615 34.0014 556.286 37.41 561.902 40.889C567.256 44.2072 570.58 49.1793 573.023 54.7598C574.838 58.9024 571.565 67.4189 567.146 69.0478C561.022 71.3001 554.612 72.7782 551.324 73.7233Z" fill="black"/>
<path d="M99.1909 66.5341C98.6731 71.9889 95.0533 78.3536 88.3668 82.9236C83.5706 86.2015 78.6236 89.2783 72.4599 88.7554C64.9741 88.1169 59.6299 84.5273 55.5124 77.9766C51.0329 70.8426 51.5105 63.0701 52.9434 56.0568C55.4671 43.7396 71.0724 33.0562 84.8928 40.527C93.5702 45.2227 99.1859 54.4833 99.1909 66.5341ZM78.2817 49.8379C73.6313 49.7323 69.4133 53.1661 68.6743 57.7712C68.1715 60.9234 67.6336 64.0857 67.4325 67.263C67.0956 72.6022 70.1121 75.4075 74.3653 73.3161C77.9952 71.5314 81.62 69.078 84.2192 66.0363C87.0697 62.7031 87.7887 58.3644 85.5364 53.9453C83.9527 50.8383 81.3384 50.0691 78.2817 49.8379Z" fill="black"/>
<path d="M116.436 62.0849C118.115 57.1178 120.106 52.2261 121.398 47.1584C122.972 40.9897 124.023 34.6853 125.164 28.411C126.004 23.8109 127.738 21.6139 130.91 21.6089C134.731 21.6039 139.437 25.294 139.568 28.9842C139.668 31.7794 139.703 35.178 138.281 37.3147C134.399 43.1415 134.621 49.9788 132.544 56.1978C130.327 62.829 128.15 69.4753 125.752 76.0412C124.299 80.0279 122.62 83.9544 120.76 87.7702C119.086 91.1989 114.496 91.4151 111.394 89.0623C105.275 84.427 104.602 77.5997 103.174 70.9182C101.595 63.5329 99.6697 56.2229 97.8749 48.8879C97.0454 45.4893 95.2154 42.0304 97.6588 38.6972C98.428 37.6465 100.117 36.6309 101.349 36.6661C106.975 36.832 110.439 40.2155 111.912 46.6657C113.073 51.7485 114.078 56.8664 115.154 61.9643C115.587 62.0095 116.009 62.0498 116.436 62.0849Z" fill="black"/>
<path d="M376.636 47.7314C379.994 38.0937 383.026 28.3757 383.589 18.0593C383.82 13.8916 386.424 10.1511 389.029 9.84446C393.875 9.27636 398.123 12.6799 399.35 16.6969C399.858 18.3559 399.068 20.5177 398.551 22.3578C396.374 30.0951 393.976 37.772 391.849 45.5243C389.933 52.5175 388.531 59.6665 386.349 66.5692C385.6 68.9472 383.523 72.1045 381.477 72.6223C377.536 73.6127 373.479 72.1849 370.965 68.4043C365.359 59.9732 362.489 50.406 359.899 40.7734C358.452 35.3789 357.069 29.899 356.476 24.3738C356.255 22.3025 357.914 19.5474 359.527 17.9035C361.126 16.2746 366.229 18.2755 368.461 20.5379C371.955 24.0923 371.528 28.8684 372.569 33.1568C373.745 37.9982 374.524 42.9352 375.474 47.8269C375.867 47.8017 376.249 47.7666 376.636 47.7314Z" fill="black"/>
<path d="M230.293 44.2373C236.582 44.4133 241.127 49.6871 241.212 54.7698C241.288 59.2091 236.653 64.7745 233.063 64.87C228.704 64.9906 222.641 57.1629 222.782 51.5925C222.887 47.3493 226.055 44.2474 230.293 44.2373Z" fill="black"/>
<path d="M465.225 43.458C466.427 41.4923 467.191 38.6668 468.94 37.777C471.298 36.5754 474.501 35.4442 477.014 38.4507C478.92 40.7331 481.509 42.5531 482.977 45.0567C484.923 48.3849 483.072 52.5527 479.292 54.9508C477.075 56.3585 472.208 55.6345 470.122 53.6436C467.337 50.9841 465.476 47.9576 466.12 43.8552C465.823 43.7295 465.527 43.5938 465.225 43.458Z" fill="black"/>
</svg>
